packages/ui/src/icons/upload.svg

<svg fill="none" height="24" viewBox="0 0 24 24" width="24" xmlns="http://www.w3.org/2000/svg"><path d="m14 2h-8c-1.1 0-1.99.9-1.99 2l-.01 16c0 1.1.89 2 1.99 2h12.01c1.1 0 2-.9 2-2v-12zm4 18h-12v-16h7v5h5zm-10-4.99 1.41 1.41 1.59-1.58v4.16h2v-4.16l1.59 1.59 1.41-1.42-3.99-4.01z" fill="#000"/></svg>

<svg width="24" height="24" viewBox="0 0 24 24" fill="none" xmlns="http://www.w3.org/2000/svg">
  <path
    d="M14 2H6c-1.1 0-1.99.9-1.99 2L4 20c0 1.1.89 2 1.99 2H18c1.1 0 2-.9 2-2V8l-6-6zm4 18H6V4h7v5h5v11zM8 15.01l1.41 1.41L11 14.84V19h2v-4.16l1.59 1.59L16 15.01 12.01 11 8 15.01z"
    fill="black"
  />
</svg>
